!!!!SEGMENT: Any1001c-Missa_Vulnerasti_cor_meum-Credo.krn
!!!id: Any1001c
!!!OTL: Credo
!!!AGN: Mass; Credo
!!!voices: 4
!!!COM: Anonymous
!!!OPR: Missa Vulnerasti cor meum
**kern	**kern	**kern	**kern
*part4	*part3	*part2	*part1
*staff4	*staff3	*staff2	*staff1
*I"Bassus	*I"Tenor	*I"Altus	*I"Superius
*I'B	*I'T	*I'A	*I'S
*clefF4	*clefGv2	*clefGv2	*clefG2
*k[b-]	*k[b-]	*k[b-]	*k[b-]
*F:	*F:	*F:	*F:
*M3/1	*M3/1	*M3/1	*M3/1
*met(O)	*met(O)	*met(O)	*met(O)
!!section: Patrem
!!!OMD: Patrem
=1	=1	=1	=1
1.d	0.r	0.r	0.r
4c	.	.	.
4B-y	.	.	.
2c	.	.	.
2d	.	.	.
=2	=2	=2	=2
2G	0.r	1.d	0.r
1B-y	.	.	.
4A	.	4c	.
4G	.	4B-y	.
2A	.	2c	.
2F	.	2d	.
=3	=3	=3	=3
1G	1.g	2G	0.r
.	.	1B-y	.
1r	.	.	.
.	4f	4A	.
.	4e	4G	.
1r	2f	2A	.
.	2g	2G	.
=4	=4	=4	=4
0.r	2d	2.B-y	1.dd
.	1f	.	.
.	.	4c	.
.	.	1d	.
.	4e	.	4cc
.	4d	.	4b-y
.	2e	1r	2cc
.	2d	.	2dd
=5	=5	=5	=5
1G	2r	2r	2g
.	1d	2.B-y	1b-y
1G	.	.	.
.	.	4c	.
.	4c	4d	4a
.	4B-y	4e	4g
1F	2c	1f	1a
.	[2d	.	.
=6	=6	=6	=6
2G	4d]	2r	2b-y
.	4G	.	.
2D	2d	2f	2.a
1E-X	4c	2g	.
.	4B-y	.	4g
.	4A	2c	1g
.	4G	.	.
1D	1A	1d	.
.	.	.	2f#i
=7	=7	=7	=7
1r	0G	2r	0g
.	.	2d	.
2r	.	1g	.
2G	.	.	.
2d	1r	2f	1r
2d	.	4g	.
.	.	4a	.
=8	=8	=8	=8
2.d	1r	2b-y	2r
.	.	2a	2f
4c	.	.	.
2B-y	1r	2g	2g
2A	.	2f	2a
1G	2r	1g	1b-y
.	2d	.	.
=9	=9	=9	=9
2r	2d	2r	2b-y
2G	2d	2g	2b-y
2.B-y	1d	2.f	2b-y
.	.	.	4a
4c	.	4e	4g
1d	2d	1d	2f
.	2d	.	2ff
=10	=10	=10	=10
2r	1g	2c	2ee
2.G	.	2d	1dd
.	1g	1G	.
4A	.	.	.
4B-y	.	.	4cc
4c	.	.	4b-y
1d	2f	2r	1a
.	2d	2d	.
=11	=11	=11	=11
2r	2g	2B-y	2dd
2A	2e	2c	1cc
2B-y	2d	2d	.
2G	2B-y	2e	1b-y
1F	1c	1f	.
.	.	.	2a
=12	=12	=12	=12
2r	0B-y	2d	0b-y
2.G	.	1g	.
4A	.	.	.
4B-y	.	2g	.
4c	.	.	.
1d	1r	2.f	1r
.	.	4g	.
=13	=13	=13	=13
2c	1r	2a	1r
2d	.	2.b-y	.
2G	1d	.	1b-y
.	.	4a	.
2.B-y	.	1g	.
.	2d	.	2b-y
4c	.	.	.
2d	[2d	2f	[2b-y
=14	=14	=14	=14
0G	2d]	0g	2b-]
.	2d	.	2b-y
.	2d	.	2b-y
.	2d	.	2b-y
1r	2.c	1r	2a
.	.	.	[2cc
.	4d	.	.
=15	=15	=15	=15
0.r	2e	0.r	4cc]
.	.	.	4b-y
.	2.f	.	1a
.	4e	.	.
.	1d	.	4g
.	.	.	4f
.	.	.	1e
.	2c#i	.	.
=16	=16	=16	=16
1D	0d	2r	4d
.	.	.	4e
.	.	2d	4f
.	.	.	4g
2D	.	2d	2a
1D	.	2d	1b-y
.	2r	2.d	.
2D	2d	.	4a
.	.	4c	4g
=17	=17	=17	=17
0.D	2d	2A	1f
.	2d	2.f	.
.	2.d	.	2r
.	.	4e	.
.	.	1d	2.f
.	4c	.	.
.	2A	.	.
.	.	.	4g
.	2f	4c	4a
.	.	4B-y	4b-y
=18	=18	=18	=18
0.r	2e	2A	2cc
.	2.d	2.f	2b-y
.	.	.	2a
.	4c	4e	.
.	2B-y	1d	1g
.	1A	.	.
.	.	2c	2f#i
=19	=19	=19	=19
1G	0G	2d	0g
.	.	2d	.
2G	.	2B-y	.
1G	.	1e-X	.
.	1r	.	1r
2G	.	4d	.
.	.	4c	.
=20	=20	=20	=20
1G	1g	1B-y	1dd
2r	2g	2r	2ee
2G	1g	2b-y	1dd
2G	.	2b-y	.
2G	2g	2b-y	2dd
=21	=21	=21	=21
1.B-y	1.d	2b-y	1.dd
.	.	4a	.
.	.	4g	.
.	.	2f	.
2G	2e	2g	4cc
.	.	.	4b-y
[1F	[1f	[1a	1a
=22	=22	=22	=22
0F]	1f]	0a]	2r
.	.	.	2.ff
.	2r	.	.
.	.	.	4ee
.	2f	.	4dd
.	.	.	4cc
1r	2f	2r	1dd
.	2f	2a	.
=23	=23	=23	=23
2r	2g	2b-y	2dd
2c	2e	2.a	2b-y
2A	2f	.	2cc
.	.	4g	.
2B-y	2d	4f	1b-y
.	.	4e	.
1F	1c	1f	.
.	.	.	2a
=24	=24	=24	=24
2.G	0.B-y	1d	0b-y
4A	.	.	.
4B-y	.	2r	.
4c	.	.	.
1d	.	2d	.
.	.	2f	1r
4c	.	2f	.
4B-y	.	.	.
=25	=25	=25	=25
2c	1r	2e	1r
2d	.	2f	.
1G	2r	1g	2r
.	2d	.	2dd
1r	1f	1r	1dd
=26	=26	=26	=26
1r	2e	1r	2cc
.	1d	.	1b-y
1r	.	1r	.
.	2c	.	4a
.	.	.	4g
[1d	[1d	2r	[1f
.	.	[2d	.
=27	=27	=27	=27
2d]	1d]	4d]	1f]
.	.	4e	.
4c	.	4f	.
4B-y	.	4g	.
2c	1r	2a	1r
2d	.	1b-y	.
2G	1d	.	1r
[2B-y	.	4a	.
.	.	4g	.
=28	=28	=28	=28
2B-]	2d	2.f	0.r
4A	2d	.	.
4G	.	4g	.
2F	1d	2a	.
1G	.	1b-y	.
.	1d	.	.
2F	.	2a	.
=29	=29	=29	=29
0G	2d	2g	1b-y
.	2d	4f	.
.	.	4e	.
.	[0g	1d	2b-y
.	.	.	2b-y
1r	.	2r	1ee-X
.	.	2c	.
=30	=30	=30	=30
1G	1g]	2B-y	2dd
.	.	2G	1dd
1D	1f	1d	.
.	.	.	4cc
.	.	.	4b-y
1A	1e	2r	4cc
.	.	.	4b-y
.	.	2c	4a
.	.	.	4g
=31	=31	=31	=31
1.B-y	2.d	1.d	0f
.	4e	.	.
.	4f	.	.
.	4g	.	.
4A	2.a	4c	.
4G	.	4B-y	.
2F	.	4c	1r
.	4g	4B-y	.
2E	[2g	4A	.
.	.	4G	.
=32	=32	=32	=32
1D	2g]	1A	0.r
.	2f#i	.	.
2r	0g	1G	.
2G	.	.	.
2G	.	2r	.
[2B-y	.	[2d	.
=33	=33	=33	=33
2B-]	1r	2d]	0.r
2A	.	2c	.
1G	1g	1B-y	.
2.D	[1a	2.A	.
4E	.	4G	.
=34	=34	=34	=34
2F	2a]	2A	0.r
2G	2g	2B-y	.
2.A	2f	2c	.
.	2e	1A	.
4G	.	.	.
2F	2d	.	.
2E	2c	2G	.
=35	=35	=35	=35
1D	1d	1A	1ff
2d	2r	2r	2ff
2d	2d	2a	1ff
2d	2.d	2a	.
4c	.	2a	4ee
4B-y	4e	.	4dd
=36	=36	=36	=36
2A	2f	2a	2cc
2G	2g	2b-y	2.ee
2A	2f	2a	.
.	.	.	4dd
2B-y	2d	2g	1dd
1A	1e	1a	.
.	.	.	2cc#i
=37	=37	=37	=37
2B-y	0d	2f	0dd
2G	.	2b-y	.
2F	.	2a	.
2G	.	2g	.
2A	1r	2g	1r
2A	.	2f#i	.
=38	=38	=38	=38
0.G	1.d	0.g	1b-y
.	.	.	2b-y
.	2d	.	1b-y
.	1d	.	.
.	.	.	4a
.	.	.	4g
=39	=39	=39	=39
0.r	1d	1r	2f
.	.	.	2b-y
.	1f	1d	2a
.	.	.	2.dd
.	1e	2A	.
.	.	.	4cc
.	.	2A	[2cc
=40	=40	=40	=40
0.r	1d	2B-y	4cc]
.	.	.	4b-y
.	.	2B-y	1b-y
.	1c	1F	.
.	.	.	2a
.	[1d	2r	2b-y
.	.	[2f	4a
.	.	.	4g
=41	=41	=41	=41
1r	1d]	2f]	2f
.	.	2d	1dd
1r	1A	2e	.
.	.	2f	2cc
1G	1d	1g	1b-y
=42	=42	=42	=42
2A	2c	2f	2a
2.G	2.d	2.g	2.b-y
4A	4A	4e	4a
2F	2c	2f	1a
1G	1B-y	1d	.
.	.	.	2g
=43	=43	=43	=43
2r	0A	2r	0a
1c	.	1a	.
4B-y	.	4g	.
4A	.	4f	.
2B-y	1r	2g	1r
2c	.	2a	.
=44	=44	=44	=44
1d	1r	2d	1.dd
.	.	1f	.
1B-y	1r	.	.
.	.	4e	4cc
.	.	4d	4b-y
1A	1A	1e	4cc
.	.	.	4b-y
.	.	.	4a
.	.	.	4g
=45	=45	=45	=45
1r	1B-y	1d	2f
.	.	.	2d
1A	1c	2r	1e
.	.	1a	.
1B-y	1d	.	2d
.	.	2g	[2dd
=46	=46	=46	=46
2A	1e	0a	2dd]
2A	.	.	2cc
1d	1f	.	2dd
.	.	.	1ff
1c	1g	1r	.
.	.	.	2ee
=47	=47	=47	=47
1F	1.a	1f	1.ff
2F	.	1f	.
2.F	2a	.	4ee
.	.	.	4dd
.	2a	2f	2.cc
4G	.	.	.
4A	2a	[2f	.
4B-y	.	.	4dd
=48	=48	=48	=48
2c	1g	2f]	4ee
.	.	.	4ff
2c	.	2e	1gg
2F	1a	1f	.
2F	.	.	1ff
1c	1g	2r	.
.	.	2c	2ee
=49	=49	=49	=49
2r	2f	2d	2ff
2c	2g	2e	2.ee
2d	2f	2f	.
.	.	.	4dd
2B-y	2d	2g	1dd
1A	1e	1a	.
.	.	.	2cc#i
=50	=50	=50	=50
2r	0d	2r	0dd
1d	.	2f	.
.	.	2.f	.
4c	.	.	.
4B-y	.	4g	.
2c	1r	2a	1r
2d	.	[2b-y	.
=51	=51	=51	=51
2G	0.r	2b-]	0dd
1B-y	.	4a	.
.	.	4g	.
.	.	2f	.
4A	.	1g	.
4G	.	.	.
1A	.	.	1cc
.	.	2f#i	.
=52	=52	=52	=52
0.G	1r	0g	2.b-y
.	.	.	4cc
.	1r	.	2dd
.	.	.	2.ee-i
.	1g	1r	.
.	.	.	4dd
.	.	.	4cc
.	.	.	4b-y
=53	=53	=53	=53
1r	1.f	1r	2a
.	.	.	1dd
1r	.	1r	.
.	2e	.	2cc
[1G	2d	2.g	[1b-y
.	2c	.	.
.	.	4f	.
=54	=54	=54	=54
2G]	1.B-y	2e	2b-]
4F	.	1d	4a
4E	.	.	4g
2D	.	.	2f
2E-X	4A	2c	1g
.	4G	.	.
1D	1A	1d	.
.	.	.	2f#i
=55	=55	=55	=55
1r	0G	2r	0g
.	.	1g	.
1G	.	.	.
.	.	4f	.
.	.	4e	.
1B-y	1r	2d	1r
.	.	[2g	.
=56	=56	=56	=56
1B-y	1d	4g]	1b-y
.	.	4f	.
.	.	1f	.
2F	2c	.	2a
2G	2B-y	2e	2g
1F	2c	1f	1a
.	[2d	.	.
=57	=57	=57	=57
1.G	2d]	2d	1b-y
.	2c	2.e-X	.
.	2B-y	.	0g
.	.	4d	.
2F	2A	1d	.
1E	1G	.	.
.	.	2c#i	.
=58	=58	=58	=58
0D	0.A	0d	0.f
1r	.	2r	.
.	.	2c	.
=59	=59	=59	=59
1F	1r	2d	1r
.	.	4c	.
.	.	4B-y	.
2F	1c	2A	1a
2F	.	1f	.
1A	2c	.	2a
.	2c	2e	2a
=60	=60	=60	=60
2r	0d	2f	0b-y
1G	.	2.g	.
.	.	4a	.
2G	.	1b-y	.
2G	2r	.	2r
2G	2d	4a	2b-y
.	.	4g	.
=61	=61	=61	=61
1B-y	2d	2f	2b-y
.	2d	2g	2b-y
1A	1e	1a	2cc
.	.	.	2cc
1d	1f	2r	1dd
.	.	2a	.
=62	=62	=62	=62
1G	0g	2b-y	2r
.	.	2b-y	2dd
2G	.	2b-y	2dd
1B-y	.	4a	2dd
.	.	4g	.
.	2r	2.f	2dd
4A	2d	.	4cc
4G	.	4g	4b-y
=63	=63	=63	=63
1F	2.f	2a	2a
.	.	1f	2.cc
.	4e	.	.
1G	2d	.	.
.	.	.	4b-y
.	2B-y	2e	1b-y
1F	1c	1f	.
.	.	.	2a
=64	=64	=64	=64
0G	1B-y	1r	1b-y
.	1d	1b-y	1r
1G	1g	1b-y	1dd
=65	=65	=65	=65
1.D	1.f	1.a	2dd
.	.	.	1dd
2E	2e	2g	2cc
1F	2d	2f	2dd
.	2c	2e	2a
=66	=66	=66	=66
1.G	1.B-y	2d	1b-y
.	.	2.e	.
.	.	.	0g
.	.	4d	.
2F	2A	1d	.
1E-X	1G	.	.
.	.	2c	.
=67	=67	=67	=67
00D	00A	00d	00f
=68||	=68||	=68||	=68||
*M2/1	*M2/1	*M2/1	*M2/1
*met(C|)	*met(C|)	*met(C|)	*met(C|)
!!section: Et resurrexit
!!!OMD: Et resurrexit
1G	1r	0r	0r
2G	1d	.	.
2G	.	.	.
=69	=69	=69	=69
1B-y	2d	0r	0r
.	2d	.	.
1A	1f	.	.
=70	=70	=70	=70
2r	1e	1g	1r
2G	.	.	.
2G	2r	2g	1dd
2G	2d	2g	.
=71	=71	=71	=71
2G	2d	1b-y	2dd
4F	2d	.	2dd
4E	.	.	.
2D	2d	1a	1ff
2d	4c	.	.
.	4B-y	.	.
=72	=72	=72	=72
2c	2A	2r	2ee
1d	2f	2a	2dd
.	2d	2a	2ff
2c	2e	2a	[2ee
=73	=73	=73	=73
2B-y	2f	1b-y	4ee]
.	.	.	4dd
2G	2g	.	1dd
1A	1e	1a	.
.	.	.	2cc#i
=74	=74	=74	=74
2r	1d	2r	1dd
2d	.	2f	.
2B-y	1r	2g	1r
2c	.	2a	.
=75	=75	=75	=75
2B-y	1r	2g	2r
2A	.	2f#i	2a
1G	2r	1g	1b-y
.	2d	.	.
=76	=76	=76	=76
0r	2e	0r	2cc
.	2.f	.	2.a
.	4e	.	4g
.	[2d	.	2f
=77	=77	=77	=77
1A	2d]	1r	1e
.	2c#i	.	.
2B-y	1d	1d	1d
2B-y	.	.	.
=78	=78	=78	=78
2c	0r	2e	1r
2c	.	2e	.
1d	.	2f	1a
.	.	2f	.
=79	=79	=79	=79
1G	1d	1.g	2b-y
.	.	.	2b-y
1r	2e	.	2cc
.	2e	4f	2cc
.	.	4e	.
=80	=80	=80	=80
2r	2f	1d	2dd
2d	2f	.	2dd
2B-y	1g	2r	1g
2c	.	2e	.
=81	=81	=81	=81
2d	1d	2f	1r
2B-y	.	2d	.
2c	1r	2e	2r
2d	.	2f	2a
=82	=82	=82	=82
1G	2r	1g	1b-y
.	2d	.	.
2r	2d	2f	2a
[2G	2d	[2b-y	[2dd
=83	=83	=83	=83
4G]	1f	2b-]	2dd]
4A	.	.	.
4B-y	.	4a	4cc
4c	.	4g	4b-y
2.d	2d	2f	2.a
.	[2f	[2a	.
8c	.	.	4b-y
8B-y	.	.	.
=84	=84	=84	=84
2A	2f]	2a]	2cc
2B-y	4e	2g	1dd
.	4d	.	.
1A	1e	1a	.
.	.	.	2cc#i
=85	=85	=85	=85
2r	0d	2r	1dd
2d	.	2b-y	.
2d	.	2b-y	2r
2d	.	2b-y	2dd
=86	=86	=86	=86
2.d	2r	2.b-y	2dd
.	2d	.	2dd
4c	.	4a	.
2.B-y	2d	2g	2.dd
.	2d	2f	.
4A	.	.	4cc
=87	=87	=87	=87
1G	2.d	2g	2.b-y
.	.	2d	.
.	4c	.	4a
2r	2.B-y	2r	1g
2d	.	2b-y	.
.	4A	.	.
=88	=88	=88	=88
2d	1G	2b-y	2r
2d	.	2b-y	2dd
2.d	2r	2.b-y	2dd
.	2d	.	2dd
4c	.	4a	.
=89	=89	=89	=89
2.B-y	2d	2g	2.dd
.	2d	2f	.
4A	.	.	4cc
1G	2.d	2g	2.b-y
.	.	2d	.
.	4c	.	4a
=90	=90	=90	=90
2r	2.B-y	2r	1g
2d	.	2b-y	.
.	4A	.	.
2.d	1G	2.b-y	2r
.	.	.	2dd
4c	.	4a	.
=91	=91	=91	=91
2B-y	2r	2g	2.dd
2A	2d	2f	.
.	.	.	4cc
2G	2.d	2g	2.b-y
2F	.	2d	.
.	4c	.	4a
=92	=92	=92	=92
2G	2.B-y	2e-X	2g
2D	.	1d	2.a
.	4A	.	.
1E	1G	.	.
.	.	.	4g
.	.	2c#i	[2g
=93	=93	=93	=93
1D	1A	1d	2g]
.	.	.	2f#i
2r	1G	2r	1g
[2B-y	.	[2g	.
=94	=94	=94	=94
2B-]	0r	2g]	0r
2A	.	2f	.
2G	.	2g	.
2B-y	.	2d	.
=95	=95	=95	=95
2.A	0r	2.f	1r
4G	.	4e	.
2F	.	2d	2r
2E	.	2c#i	2g
=96	=96	=96	=96
[0D	1d	1d	2f
.	.	.	2.b-y
.	2d	2r	.
.	.	.	4cc
.	[2d	[2f	[2dd
=97	=97	=97	=97
0D_	2d]	2f]	2dd]
.	2d	2f	4cc
.	.	.	4b-y
.	[1d	2f	2a
.	.	2f	[2dd
=98	=98	=98	=98
0D_	1d]	2.f	4dd]
.	.	.	4ee
.	.	.	2.ff
.	.	4g	.
.	1d	2a	.
.	.	.	4ee
.	.	[2b-y	[2dd
=99	=99	=99	=99
0D]	1d	2b-]	2dd]
.	.	4a	4cc
.	.	4g	4b-y
.	[1d	2f	2a
.	.	[2g	2b-y
=100	=100	=100	=100
1r	2d]	2g]	1a
.	2d	2f#i	.
2r	[1g	1g	1g
[2G	.	.	.
=101	=101	=101	=101
4G]	1g]	2.d	1b-y
4A	.	.	.
4B-y	.	.	.
4c	.	4e	.
1d	[1f	4f	2a
.	.	4g	.
.	.	[2a	[2dd
=102	=102	=102	=102
2D	2f]	2a]	2dd]
2E	2e	2g	2.cc
2F	2d	2f	.
.	.	.	4b-y
2G	2B-y	2e	[2b-y
=103	=103	=103	=103
1F	1c	1f	2b-]
.	.	.	2a
1G	[1B-y	2d	[1b-y
.	.	2g	.
=104	=104	=104	=104
2r	1B-]	2g	1b-]
2G	.	2g	.
2G	1r	2d	1r
2G	.	2e	.
=105	=105	=105	=105
2D	0r	2.f	0r
1d	.	.	.
.	.	4e	.
.	.	4f	.
.	.	4g	.
2c	.	[2a	.
=106	=106	=106	=106
2d	0r	4a]	0r
.	.	4g	.
2G	.	1g	.
2B-y	.	.	.
2A	.	2f#i	.
=107	=107	=107	=107
0G	2r	1g	1r
.	2g	.	.
.	2g	1r	2r
.	2g	.	2b-y
=108	=108	=108	=108
2r	1d	2r	2b-y
2d	.	2d	2b-y
2d	2r	2f	1a
2d	2d	2f	.
=109	=109	=109	=109
1G	2d	1g	2r
.	2d	.	2b-y
2r	1g	2r	2b-y
2G	.	2d	2b-y
=110	=110	=110	=110
2d	2r	2f	1a
2d	1d	2f	.
1G	.	1g	2r
.	2d	.	[2dd
=111	=111	=111	=111
2r	1f	2r	2dd]
2d	.	2b-y	2dd
2d	2d	2a	2ff
2c	2e	2a	[2ee
=112	=112	=112	=112
2d	2f	2a	4ee]
.	.	.	4dd
2B-y	2d	2g	1dd
1A	1e	1a	.
.	.	.	2cc#i
=113	=113	=113	=113
2r	1d	2r	1dd
1B-y	.	1f	.
.	2r	.	2r
2G	2d	2g	2b-y
=114	=114	=114	=114
2A	2c	2e	2cc
2B-y	2d	2d	2b-y
2F	2c	2f	2a
2G	2B-y	2e	[2g
=115	=115	=115	=115
1D	1A	1d	2g]
.	.	.	2f#i
1r	1G	1r	1g
=116	=116	=116	=116
*M3/1	*M3/1	*M3/1	*M3/1
*met(O/3)	*met(O/3)	*met(O/3)	*met(O/3)
*Xtuplet	*Xtuplet	*Xtuplet	*Xtuplet
3%4B-y	0r	3%2.d	0r
.	.	3e	.
3%2A	.	3%2f	.
=117	=117	=117	=117
3%2B-y	0r	3%2g	0r
3%2c	.	3%2e	.
3%2d	.	3%2d	.
=118	=118	=118	=118
3%2c	0r	3%2a	0r
3B-y	.	3%2g	.
3G	.	.	.
3%2A	.	3%2f#i	.
=119	=119	=119	=119
3%4G	3%4g	3%4g	3%4b-y
3%2r	3%2g	3%2r	3%2b-y
=120	=120	=120	=120
3%2G	3%2g	3%2d	3%2b-y
3%2G	3%2g	3%2d	3%2b-y
3%2G	3%2g	3%2d	3%2b-y
=121	=121	=121	=121
3%2D	3%4f	3%2d	3%2.a
3%2D	.	3%2d	.
.	.	.	3b-y
3%2A	3%2e	3%2c	3%2cc
=122	=122	=122	=122
3%2B-y	3%2d	3%2d	3%4b-y
3%2G	3%2B-y	3%2e	.
3%2F	3%2c	3%2f	3%2a
=123	=123	=123	=123
*M2/1	*M2/1	*M2/1	*M2/1
*met(C|)	*met(C|)	*met(C|)	*met(C|)
1G	[0B-y	0d	[0b-y
2r	.	.	.
2G	.	.	.
=124	=124	=124	=124
2G	0B-]	2r	0b-]
2G	.	2g	.
2.B-y	.	2g	.
.	.	2g	.
4A	.	.	.
=125	=125	=125	=125
2G	0r	2b-y	0r
2F	.	1a	.
2c	.	.	.
2B-y	.	2g	.
=126	=126	=126	=126
1A	1r	2g	0r
.	.	2f#i	.
[1G	2r	[1g	.
.	2d	.	.
=127	=127	=127	=127
1G]	2d	1g]	2r
.	2d	.	2dd
1r	2.f	1r	2dd
.	.	.	2dd
.	4e	.	.
=128	=128	=128	=128
0r	2d	0r	2ff
.	2c	.	1ee
.	2g	.	.
.	2f	.	2dd
=129	=129	=129	=129
1r	1e	1r	2dd
.	.	.	2cc#i
2r	1d	2r	[1dd
2d	.	2d	.
=130	=130	=130	=130
2.d	0r	2f	1dd]
.	.	2f	.
4c	.	.	.
2B-y	.	2g	1r
2A	.	2a	.
=131	=131	=131	=131
2G	0r	2b-y	0r
2F	.	2.a	.
1G	.	.	.
.	.	4g	.
.	.	[2g	.
=132	=132	=132	=132
1A	0r	2g]	1r
.	.	2f#i	.
[1G	.	[1g	2r
.	.	.	2dd
=133	=133	=133	=133
1G]	2r	1g]	2.dd
.	2d	.	.
.	.	.	4cc
2r	2.d	1r	2b-y
2F	.	.	2a
.	4c	.	.
=134	=134	=134	=134
2G	2B-y	2r	2g
2D	2A	2d	2f
2G	2B-y	2e	2g
2F	2c	2f	[2a
=135	=135	=135	=135
2G	1G	2e	4a]
.	.	.	4g
2E	.	2c	1g
1D	1A	1d	.
.	.	.	2f#i
=136	=136	=136	=136
*M3/1	*M3/1	*M3/1	*M3/1
*met(O/3)	*met(O/3)	*met(O/3)	*met(O/3)
*Xtuplet	*Xtuplet	*Xtuplet	*Xtuplet
3%2r	3%4G	3%2r	3%4g
3%2r	.	3%2r	.
3%2G	3%2d	3%2g	3%2b-y
=137	=137	=137	=137
3%2G	3%2d	3%2g	3%2b-y
3%2A	3%2c	3%2f	3%2a
3%2G	3%2d	3%2g	3%2b-y
=138	=138	=138	=138
3%2D	3%2f	3%2f	3%2dd
3%2E	3%2.e	3%2g	3%2.cc
3%2F	.	3%2a	.
.	3d	.	3b-y
=139	=139	=139	=139
3%2G	3%4d	3%4g	3%4b-y
3%4A	.	.	.
.	3%2c	3%2f	3%2a
=140	=140	=140	=140
3%2.G	3%2.d	3%2.g	3%2.b-y
3G	3d	3g	3b-y
3G	3d	3g	3b-y
3G	3d	3g	3b-y
=141	=141	=141	=141
3%2G	3%2d	3%2g	3%2b-y
3%2A	3%2c	3%2e	3%2a
3%2D	3%2d	3%2f	3%2a
=142	=142	=142	=142
3%2E-X	3%2G	3%2c	3%4g
3%4D	3%4A	3%4d	.
.	.	.	3%2f#i
=143	=143	=143	=143
*M2/1	*M2/1	*M2/1	*M2/1
*met(C|)	*met(C|)	*met(C|)	*met(C|)
1G	0G	1d	0g
2r	.	2r	.
2G	.	2g	.
=144	=144	=144	=144
2B-y	1r	2g	1r
2A	.	2f	.
1G	2r	1g	2r
.	2d	.	2dd
=145	=145	=145	=145
1r	2f	1r	2dd
.	2e	.	2cc
2.B-y	1d	2.d	1dd
4A	.	4c	.
=146	=146	=146	=146
2B-y	0r	2d	0r
2c	.	2e	.
1d	.	1f	.
=147	=147	=147	=147
1G	2.d	1g	2.b-y
.	4c	.	4a
1r	2d	2r	2b-y
.	2e	2g	2cc
=148	=148	=148	=148
2r	1f	2f	1dd
1d	.	2d	.
.	1g	2e	1g
2c	.	[2g	.
=149	=149	=149	=149
1d	1r	2g]	1r
.	.	2f	.
1G	2r	1g	1b-y
.	2g	.	.
=150	=150	=150	=150
1r	2f	1r	2a
.	2d	.	2b-y
2r	2e	2r	2cc
[2d	2d	2d	2dd
=151	=151	=151	=151
2d]	0r	2f	0r
4c	.	2f	.
4B-y	.	.	.
2c	.	2e	.
2d	.	2f	.
=152	=152	=152	=152
2G	1.g	1g	0r
1B-y	.	.	.
.	.	1r	.
4A	4f	.	.
4G	4e	.	.
=153	=153	=153	=153
2A	2f	1r	1r
2G	2g	.	.
2.B-y	2d	1b-y	[1dd
.	[2f	.	.
4c	.	.	.
=154	=154	=154	=154
1d	2f]	1a	2dd]
.	4e	.	4cc
.	4d	.	4b-y
1r	2e	2g	2cc
.	2d	2f	2dd
=155	=155	=155	=155
0r	0r	2e	2g
.	.	1d	1b-y
.	.	4c	4a
.	.	4B-y	4g
=156	=156	=156	=156
0r	0r	2c	2a
.	.	2B-y	2g
.	.	1A	2g
.	.	.	2f#i
=157	=157	=157	=157
2r	2r	2G	2g
2G	2d	2g	2b-y
2G	2d	2g	2b-y
2G	2d	2g	2b-y
=158	=158	=158	=158
2A	2c	2e	2cc
2A	1f	1a	2cc
2D	.	.	2dd
2E	2e	2g	[2cc
=159	=159	=159	=159
2F	2d	2f	4cc]
.	.	.	4b-y
2G	2B-y	2e	1b-y
1F	1c	1f	.
.	.	.	2a
=160	=160	=160	=160
1G	0B-y	2d	2.b-y
.	.	2.g	.
.	.	.	4a
2r	.	.	4b-y
.	.	4f	4cc
2G	.	[2b-y	2dd
=161	=161	=161	=161
2B-y	1r	4b-]	2dd
.	.	4a	.
2c	.	1g	4cc
.	.	.	4b-y
1d	1d	.	1a
.	.	2f#i	.
=162	=162	=162	=162
2.G	0g	1g	2.b-y
4A	.	.	4cc
2B-y	.	1r	2dd
2c	.	.	2ee
=163	=163	=163	=163
2.d	1.f	1a	2.ff
4c	.	.	4ee
2d	.	2.a	2dd
2A	2e	.	2cc
.	.	4g	.
=164	=164	=164	=164
2B-y	2d	2.f	2b-y
2F	2c	.	2a
.	.	4e	.
[1G	[1B-y	2d	2.g
.	.	[2e	.
.	.	.	4f
=165	=165	=165	=165
2G]	2B-]	4e]	4g
.	.	4d	4a
2F	2A	1d	1b-y
1E-X	1G	.	.
.	.	2c	4a
.	.	.	4g
=166	=166	=166	=166
0D	0A	[0dl	2f
.	.	.	1g
.	.	.	2f#i
=167	=167	=167	=167
00Gl	00Gl	00d]	00gl
==	==	==	==
*-	*-	*-	*-
!!!system-decoration: [*]
!!!RDF**kern: i = editorial accidental
!!!RDF**kern: l = terminal long
!!!ENC: David Burn
!!!END: 2025/2/19
!!!EED: Benjamin Ory
!!!EEV: 2025/2/19
!!!YEC: Copyright 2025 David Burn, All Rights Reserved
!!!ONB: Translated from MusicXML on 2025/2/19
!!!verovio: header encoded
!!!header-left: Edited by @{ENC} (2025)\n
!!!header-right:
!!!header-center: